X:2182
T:Gemman the Bard
O:england
M:2/4
L:1/8
Q:300
C:Stephen P. McNally
R:March
K:D
|:A2a>e f>ec<e|c<eA>d B<gd>G|A2a>e f>ec<e|G<Bd>B g>dB<G|
|A2a>e f>ec<e|c<eA>d B<gd>G|A>cf<e B>Gd<B|c2A2 A4:|
|:e2c<c e>AB<d|e2c<c B>gd<G|e2c<c e>AB<d|G<Bd>B g>dB<G|
|e2c<c e>AB<d|e2c<c B>gd<G|A>cf<e B>Gd<B|c2A2 A4:|


